Papirus/64x64/apps/com.github.elfenware.badger.svg

<?xml version="1.0" encoding="UTF-8" standalone="no"?>
<svg
   id="_图层_1"
   version="1.1"
   viewBox="0 0 64 64" width="64" height="64"
   sodipodi:docname="com.github.elfenware.badger.svg"
   xml:space="preserve"
   inkscape:version="1.4 (e7c3feb100, 2024-10-09)"
   xmlns:inkscape="http://www.inkscape.org/namespaces/inkscape"
   xmlns:sodipodi="http://sodipodi.sourceforge.net/DTD/sodipodi-0.dtd"
   xmlns="http://www.w3.org/2000/svg"
   xmlns:svg="http://www.w3.org/2000/svg"><sodipodi:namedview
     id="namedview26"
     pagecolor="#505050"
     bordercolor="#eeeeee"
     borderopacity="1"
     inkscape:showpageshadow="0"
     inkscape:pageopacity="0"
     inkscape:pagecheckerboard="0"
     inkscape:deskcolor="#505050"
     inkscape:zoom="10.6875"
     inkscape:cx="32"
     inkscape:cy="33.497076"
     inkscape:window-width="1920"
     inkscape:window-height="939"
     inkscape:window-x="0"
     inkscape:window-y="34"
     inkscape:window-maximized="1"
     inkscape:current-layer="_图层_1"
     showguides="true" /><!-- Generator: Adobe Illustrator 29.0.1, SVG Export Plug-In . SVG Version: 2.1.0 Build 192)  --><defs
     id="defs6"><style
       id="style1">
      .st0 {
        fill-opacity: .5;
      }

      .st0, .st1, .st2, .st3, .st4, .st5, .st6, .st7 {
        fill: #fff;
      }

      .st8 {
        fill: #133c9a;
      }

      .st2, .st9 {
        display: none;
      }

      .st3 {
        fill-opacity: .2;
      }

      .st4 {
        fill-opacity: .9;
      }

      .st10 {
        fill: #3370ff;
      }

      .st11 {
        fill: url(#_未命名的渐变_3);
      }

      .st12 {
        fill: url(#_未命名的渐变);
      }

      .st5 {
        fill-opacity: .3;
      }

      .st6 {
        fill-opacity: 0;
      }

      .st7 {
        fill-opacity: .7;
      }

      .st13 {
        fill: #00d6b9;
      }

      .st14 {
        fill: url(#_未命名的渐变_2);
      }
    </style><radialGradient
       id="_未命名的渐变"
       data-name="未命名的渐变"
       cx="123.9"
       cy="-40.2"
       fx="123.9"
       fy="-40.2"
       r="59.4"
       gradientTransform="translate(-26.8 25.5) scale(.6 -.7)"
       gradientUnits="userSpaceOnUse"><stop
         offset="0"
         stop-color="#db202e"
         id="stop1" /><stop
         offset="1"
         stop-color="#e01b24"
         id="stop2" /></radialGradient><radialGradient
       id="_未命名的渐变_2"
       data-name="未命名的渐变 2"
       cx="67.6"
       cy="26.8"
       fx="67.6"
       fy="26.8"
       r="105.2"
       gradientTransform="translate(-26.6 25.3) scale(.6 -.7)"
       gradientUnits="userSpaceOnUse"><stop
         offset="0"
         stop-color="#ffb648"
         id="stop3" /><stop
         offset="1"
         stop-color="#ff7800"
         stop-opacity="0"
         id="stop4" /></radialGradient><radialGradient
       id="_未命名的渐变_3"
       data-name="未命名的渐变 3"
       cx="61.7"
       cy="18.6"
       fx="61.7"
       fy="18.6"
       r="68"
       gradientTransform="translate(-26.8 25.8) scale(.6 -.7)"
       gradientUnits="userSpaceOnUse"><stop
         offset="0"
         stop-color="#c64600"
         id="stop5" /><stop
         offset="1"
         stop-color="#a51d2d"
         id="stop6" /></radialGradient></defs><path
     class="st1"
     d="M47.5,64.1H13.8c-7.6,0-13.8-6.3-13.8-13.8V13.7C0,6.2,6.2,0,13.7,0h36.6c7.5,0,13.7,6.2,13.7,13.7v36.6c0,7.5-6.2,13.7-13.7,13.7h-2.9.1Z"
     id="path6"
     style="fill:#b3b3b3;fill-opacity:1" /><g
     id="g38"
     transform="matrix(0.88567877,0,0,0.82435919,3.4243609,5.6941052)"><path
       style="opacity:0.2"
       d="m 60.062329,33.0009 c 0,3.825184 -0.767076,7.471246 -2.15578,10.792654 -0.363698,0.869812 3.714716,5.474802 3.26838,6.297496 -0.4126,0.760538 -5.344122,-2.257658 -5.823068,-1.541736 -0.362642,0.54193 2.650118,3.252568 2.25152,3.767038 -0.371106,0.47899 -4.151196,-1.236186 -4.55195,-0.78265 C 47.921257,57.339122 40.419757,61 32.063211,61 c -7.62068,0 -14.530277,-3.044542 -19.578828,-7.983598 -0.450145,-0.440562 -5.4757682,3.64361 -4.82028,2.0283 L 9.7466972,49.91271 2.9049468,52.528834 c -1.0749022,0.41104 3.2042548,-5.528496 3.5053976,-8.290654 0,0 -2.34625,-7.240606 -2.3462516,-11.23728 C 4.0640916,29.872258 4.5772362,26.863476 5.52396,24.05414 9.2564674,12.978047 19.728367,8.8332216 32.063211,8.8332216 c 10.987556,0 20.496904,2.4975444 25.081332,11.7088064 1.867528,3.752332 2.917786,7.98293 2.917786,12.458872 z"
       id="path1" /><path
       style="fill:#e4e4e4"
       d="m 60.062329,32.0009 c 0,3.825184 -0.767076,7.471246 -2.15578,10.792654 -0.363698,0.869812 3.714716,5.474802 3.26838,6.297496 -0.4126,0.760538 -5.344122,-2.257658 -5.823068,-1.541736 -0.362642,0.54193 2.650118,3.252568 2.25152,3.767038 -0.371106,0.47899 -4.151196,-1.236186 -4.55195,-0.78265 C 47.921257,56.339122 40.419757,60 32.063211,60 c -7.62068,0 -14.530277,-3.044542 -19.578828,-7.983598 -0.450145,-0.440562 -5.4757682,3.64361 -4.82028,2.0283 L 9.7466972,48.91271 2.9049468,51.528834 c -1.0749022,0.41104 3.2042548,-5.528496 3.5053976,-8.290654 0,0 -2.34625,-7.240606 -2.3462516,-11.23728 C 4.0640916,28.872258 4.5772362,25.863476 5.52396,23.05414 9.2564674,11.978047 19.728367,7.8332216 32.063211,7.8332216 c 10.987556,0 20.496904,2.4975444 25.081332,11.7088054 1.867528,3.752333 2.917786,7.982931 2.917786,12.458873 z"
       id="path2" /><path
       style="fill:#4f4f4f"
       d="m 32.062521,4.0017816 c -6.48664,0 -12.453548,2.2092422 -17.200116,5.9118206 C 14.701013,9.5932992 14.505398,9.2907248 14.27813,9.0098476 12.254982,6.5364288 7.8400482,6.2477674 4.9102152,8.3651312 1.9800303,10.482541 1.2454585,14.204369 3.2696418,16.677369 4.1655656,17.77264 5.9053852,18.486344 7.4366514,18.683474 6.6354644,20.161932 5.958217,21.716608 5.430547,23.3404 5.9308798,31.342586 13.00627,44.089536 19.338003,46 c 5.280964,1.593422 7.586792,-21.720346 13.095806,-22 6.51449,-0.330838 11.451722,22.784222 17.251922,19.8 6.351272,-3.267762 9.636166,-16.126786 7.428632,-24.313509 -0.654548,-1.307702 -1.41891,-2.549074 -2.262264,-3.730147 2.173936,0.197653 4.608174,-0.559425 5.845142,-2.026251 C 62.779685,11.257322 62.024499,7.5355142 59.010617,5.4178556 55.996389,3.2992478 51.464675,3.587955 49.383521,6.062572 48.650581,6.9342374 48.243469,8.00453 48.212095,9.1422448 43.647483,5.9107054 38.080857,4.0017816 32.062521,4.0017816 Z"
       id="path3" /><path
       style="opacity:0.2"
       d="m 46.070241,21 a 5.9305434,9 0 0 0 -5.929688,9 5.9305434,9 0 0 0 5.929688,9 5.9305434,9 0 0 0 5.929688,-9 5.9305434,9 0 0 0 -5.929688,-9 z m -28.085937,2 a 5.9855942,9 0 0 0 -5.984375,9 5.9855942,9 0 0 0 5.984375,9 5.9855942,9 0 0 0 5.988281,-9 5.9855942,9 0 0 0 -5.988281,-9 z"
       id="path4" /><path
       style="fill:#2e2e2e"
       d="m 23.000439,32.72004 a 3.8249744,5.318408 0 0 1 -3.824973,5.318448 3.8249744,5.318408 0 0 1 -3.824976,-5.318448 3.8249744,5.318408 0 0 1 3.824976,-5.318396 3.8249744,5.318408 0 0 1 3.824973,5.318396 z"
       id="path5-0" /><ellipse
       style="fill:#ffffff"
       cx="17.986"
       cy="31"
       rx="5.9860001"
       ry="9"
       id="ellipse5" /><path
       style="fill:#2e2e2e"
       d="m 19.496567,25 c -1.299308,0 -2.441991,0.795914 -3.23261,1.980422 -0.790619,1.184618 -1.262258,2.771478 -1.262258,4.514037 0,1.742616 0.471641,3.340558 1.262258,4.525119 C 17.054576,37.204142 18.197259,38 19.496567,38 c 1.299312,0 2.452257,-0.795858 3.242876,-1.980422 0.790617,-1.184561 1.262258,-2.782503 1.262256,-4.525119 0,-1.742559 -0.471641,-3.329419 -1.262256,-4.514037 C 21.948824,25.795914 20.795879,25 19.496567,25 Z"
       id="path6-6" /><ellipse
       style="fill:#ffffff"
       cx="18"
       cy="30"
       rx="2"
       ry="3"
       id="ellipse6" /><path
       style="fill:#2e2e2e"
       d="m 41.212369,29.34293 a 3.8260266,5.318408 0 0 0 3.826026,5.31845 3.8260266,5.318408 0 0 0 3.826026,-5.31845 3.8260266,5.318408 0 0 0 -3.826026,-5.318392 3.8260266,5.318408 0 0 0 -3.826026,5.318392 z"
       id="path7-3" /><ellipse
       style="fill:#ffffff"
       cx="-46.069"
       cy="29"
       rx="5.9310002"
       ry="9"
       transform="scale(-1,1)"
       id="ellipse7" /><path
       style="fill:#2e2e2e"
       d="m 44.500283,23.996202 c 1.300894,0 2.455246,0.735482 3.24683,1.830226 0.791584,1.094744 1.253524,2.561228 1.253524,4.171702 0,1.610414 -0.461944,3.076956 -1.253524,4.171644 C 46.955529,35.26452 45.801177,36 44.500283,36 c -1.300896,0 -2.455246,-0.73548 -3.24683,-1.830226 -0.791586,-1.094688 -1.253524,-2.56123 -1.253524,-4.171644 0,-1.610474 0.461942,-3.076958 1.253524,-4.171702 0.791584,-1.094744 1.945934,-1.830226 3.24683,-1.830226 z"
       id="path8-2" /><ellipse
       style="fill:#ffffff"
       cx="-43"
       cy="29"
       rx="2"
       ry="3"
       transform="scale(-1,1)"
       id="ellipse8" /><path
       style="fill:#2e2e2e"
       d="m 28.223999,47.76792 c 1.189376,-1.833748 8.507704,-2.612858 9.591904,-0.50002 1.004896,1.957788 -2.33915,4.566284 -4.38068,4.724112 -2.153628,0.16612 -6.463736,-2.292608 -5.211224,-4.223752 z"
       id="path9-0" /><path
       style="opacity:0.1;fill:#ffffff"
       d="M 54.515625,4 C 52.500458,3.9692956 50.553462,4.6705279 49.382812,6.0625 48.649873,6.9341654 48.244265,8.0048633 48.212891,9.1425781 43.648279,5.9110387 38.080836,4.0019531 32.0625,4.0019531 c -6.48664,0 -12.452651,2.209531 -17.199219,5.9121094 C 14.701889,9.5937595 14.504612,9.2906428 14.277344,9.0097656 12.254196,6.5363468 7.8399892,6.2478706 4.9101562,8.3652344 2.9428883,9.7868213 1.9698397,11.931038 2.1523438,13.935547 2.3158425,12.242878 3.2676027,10.552176 4.9101562,9.3652344 c 2.929833,-2.1173638 7.3440398,-1.828888 9.3671878,0.6445316 0.227268,0.280877 0.424545,0.583993 0.585937,0.904296 C 19.609849,7.2114843 25.57586,5.0019531 32.0625,5.0019531 c 6.018336,0 11.585779,1.9090854 16.150391,5.1406249 0.03137,-1.1377149 0.436982,-2.2084126 1.169921,-3.080078 2.081155,-2.474617 6.612726,-2.763139 9.626954,-0.6445312 1.686829,1.1852249 2.665676,2.8725029 2.835937,4.5625002 C 62.030355,8.9782367 61.030623,6.8378933 59.009766,5.4179688 57.691041,4.4910778 56.082977,4.0238812 54.515625,4 Z m 0.335937,12.755859 c 0.843355,1.181073 1.609124,2.422767 2.263672,3.730469 0.403704,1.497149 0.618752,3.152572 0.669922,4.875 0.01551,-2.080322 -0.188831,-4.090857 -0.669922,-5.875 -0.468391,-0.935785 -0.996842,-1.835015 -1.566406,-2.705078 -0.233991,1.62e-4 -0.467372,-0.0045 -0.697266,-0.02539 z M 6.9628906,19.603516 c -0.5958057,1.20015 -1.1136409,2.445215 -1.5332031,3.736328 0.015342,0.245372 0.056489,0.507874 0.083984,0.761718 C 6.0292521,22.564571 6.6759273,21.08895 7.4375,19.683594 7.2813948,19.663497 7.1222156,19.634206 6.9628906,19.603516 Z"
       id="path10-6" /></g></svg>

<svg xmlns="http://www.w3.org/2000/svg" width="64" height="64" version="1.1">
 <path style="opacity:0.2" d="m 60.062329,33.0009 c 0,3.825184 -0.767076,7.471246 -2.15578,10.792654 -0.363698,0.869812 3.714716,5.474802 3.26838,6.297496 -0.4126,0.760538 -5.344122,-2.257658 -5.823068,-1.541736 -0.362642,0.54193 2.650118,3.252568 2.25152,3.767038 -0.371106,0.47899 -4.151196,-1.236186 -4.55195,-0.78265 C 47.921257,57.339122 40.419757,61 32.063211,61 c -7.62068,0 -14.530277,-3.044542 -19.578828,-7.983598 -0.450145,-0.440562 -5.4757682,3.64361 -4.82028,2.0283 L 9.7466972,49.91271 2.9049468,52.528834 c -1.0749022,0.41104 3.2042548,-5.528496 3.5053976,-8.290654 0,0 -2.34625,-7.240606 -2.3462516,-11.23728 C 4.0640916,29.872258 4.5772362,26.863476 5.52396,24.05414 9.2564674,12.978047 19.728367,8.8332216 32.063211,8.8332216 c 10.987556,0 20.496904,2.4975444 25.081332,11.7088064 1.867528,3.752332 2.917786,7.98293 2.917786,12.458872 z"/>
 <path style="fill:#e4e4e4" d="m 60.062329,32.0009 c 0,3.825184 -0.767076,7.471246 -2.15578,10.792654 -0.363698,0.869812 3.714716,5.474802 3.26838,6.297496 -0.4126,0.760538 -5.344122,-2.257658 -5.823068,-1.541736 -0.362642,0.54193 2.650118,3.252568 2.25152,3.767038 -0.371106,0.47899 -4.151196,-1.236186 -4.55195,-0.78265 C 47.921257,56.339122 40.419757,60 32.063211,60 c -7.62068,0 -14.530277,-3.044542 -19.578828,-7.983598 -0.450145,-0.440562 -5.4757682,3.64361 -4.82028,2.0283 L 9.7466972,48.91271 2.9049468,51.528834 c -1.0749022,0.41104 3.2042548,-5.528496 3.5053976,-8.290654 0,0 -2.34625,-7.240606 -2.3462516,-11.23728 C 4.0640916,28.872258 4.5772362,25.863476 5.52396,23.05414 9.2564674,11.978047 19.728367,7.8332216 32.063211,7.8332216 c 10.987556,0 20.496904,2.4975444 25.081332,11.7088054 1.867528,3.752333 2.917786,7.982931 2.917786,12.458873 z"/>
 <path style="fill:#4f4f4f" d="m 32.062521,4.0017816 c -6.48664,0 -12.453548,2.2092422 -17.200116,5.9118206 C 14.701013,9.5932992 14.505398,9.2907248 14.27813,9.0098476 12.254982,6.5364288 7.8400482,6.2477674 4.9102152,8.3651312 1.9800303,10.482541 1.2454585,14.204369 3.2696418,16.677369 4.1655656,17.77264 5.9053852,18.486344 7.4366514,18.683474 6.6354644,20.161932 5.958217,21.716608 5.430547,23.3404 5.9308798,31.342586 13.00627,44.089536 19.338003,46 c 5.280964,1.593422 7.586792,-21.720346 13.095806,-22 6.51449,-0.330838 11.451722,22.784222 17.251922,19.8 6.351272,-3.267762 9.636166,-16.126786 7.428632,-24.313509 -0.654548,-1.307702 -1.41891,-2.549074 -2.262264,-3.730147 2.173936,0.197653 4.608174,-0.559425 5.845142,-2.026251 C 62.779685,11.257322 62.024499,7.5355142 59.010617,5.4178556 55.996389,3.2992478 51.464675,3.587955 49.383521,6.062572 48.650581,6.9342374 48.243469,8.00453 48.212095,9.1422448 43.647483,5.9107054 38.080857,4.0017816 32.062521,4.0017816 Z"/>
 <path style="opacity:0.2" d="m 46.070241,21 a 5.9305434,9 0 0 0 -5.929688,9 5.9305434,9 0 0 0 5.929688,9 5.9305434,9 0 0 0 5.929688,-9 5.9305434,9 0 0 0 -5.929688,-9 z m -28.085937,2 a 5.9855942,9 0 0 0 -5.984375,9 5.9855942,9 0 0 0 5.984375,9 5.9855942,9 0 0 0 5.988281,-9 5.9855942,9 0 0 0 -5.988281,-9 z"/>
 <path style="fill:#2e2e2e" d="m 23.000439,32.72004 a 3.8249744,5.318408 0 0 1 -3.824973,5.318448 3.8249744,5.318408 0 0 1 -3.824976,-5.318448 3.8249744,5.318408 0 0 1 3.824976,-5.318396 3.8249744,5.318408 0 0 1 3.824973,5.318396 z"/>
 <ellipse style="fill:#ffffff" cx="17.986" cy="31" rx="5.986" ry="9"/>
 <path style="fill:#2e2e2e" d="m 19.496567,25 c -1.299308,0 -2.441991,0.795914 -3.23261,1.980422 -0.790619,1.184618 -1.262258,2.771478 -1.262258,4.514037 0,1.742616 0.471641,3.340558 1.262258,4.525119 C 17.054576,37.204142 18.197259,38 19.496567,38 c 1.299312,0 2.452257,-0.795858 3.242876,-1.980422 0.790617,-1.184561 1.262258,-2.782503 1.262256,-4.525119 0,-1.742559 -0.471641,-3.329419 -1.262256,-4.514037 C 21.948824,25.795914 20.795879,25 19.496567,25 Z"/>
 <ellipse style="fill:#ffffff" cx="18" cy="30" rx="2" ry="3"/>
 <path style="fill:#2e2e2e" d="m 41.212369,29.34293 a 3.8260266,5.318408 0 0 0 3.826026,5.31845 3.8260266,5.318408 0 0 0 3.826026,-5.31845 3.8260266,5.318408 0 0 0 -3.826026,-5.318392 3.8260266,5.318408 0 0 0 -3.826026,5.318392 z"/>
 <ellipse style="fill:#ffffff" cx="-46.069" cy="29" rx="5.931" ry="9" transform="scale(-1,1)"/>
 <path style="fill:#2e2e2e" d="m 44.500283,23.996202 c 1.300894,0 2.455246,0.735482 3.24683,1.830226 0.791584,1.094744 1.253524,2.561228 1.253524,4.171702 0,1.610414 -0.461944,3.076956 -1.253524,4.171644 C 46.955529,35.26452 45.801177,36 44.500283,36 c -1.300896,0 -2.455246,-0.73548 -3.24683,-1.830226 -0.791586,-1.094688 -1.253524,-2.56123 -1.253524,-4.171644 0,-1.610474 0.461942,-3.076958 1.253524,-4.171702 0.791584,-1.094744 1.945934,-1.830226 3.24683,-1.830226 z"/>
 <ellipse style="fill:#ffffff" cx="-43" cy="29" rx="2" ry="3" transform="scale(-1,1)"/>
 <path style="fill:#2e2e2e" d="m 28.223999,47.76792 c 1.189376,-1.833748 8.507704,-2.612858 9.591904,-0.50002 1.004896,1.957788 -2.33915,4.566284 -4.38068,4.724112 -2.153628,0.16612 -6.463736,-2.292608 -5.211224,-4.223752 z"/>
 <path style="fill:#ffffff;opacity:0.1" d="M 54.515625 4 C 52.500458 3.9692956 50.553462 4.6705279 49.382812 6.0625 C 48.649873 6.9341654 48.244265 8.0048633 48.212891 9.1425781 C 43.648279 5.9110387 38.080836 4.0019531 32.0625 4.0019531 C 25.57586 4.0019531 19.609849 6.2114841 14.863281 9.9140625 C 14.701889 9.5937595 14.504612 9.2906428 14.277344 9.0097656 C 12.254196 6.5363468 7.8399892 6.2478706 4.9101562 8.3652344 C 2.9428883 9.7868213 1.9698397 11.931038 2.1523438 13.935547 C 2.3158425 12.242878 3.2676027 10.552176 4.9101562 9.3652344 C 7.8399892 7.2478706 12.254196 7.5363464 14.277344 10.009766 C 14.504612 10.290643 14.701889 10.593759 14.863281 10.914062 C 19.609849 7.2114843 25.57586 5.0019531 32.0625 5.0019531 C 38.080836 5.0019531 43.648279 6.9110385 48.212891 10.142578 C 48.244265 9.0048631 48.649873 7.9341654 49.382812 7.0625 C 51.463967 4.587883 55.995538 4.299361 59.009766 6.4179688 C 60.696595 7.6031937 61.675442 9.2904717 61.845703 10.980469 C 62.030355 8.9782367 61.030623 6.8378933 59.009766 5.4179688 C 57.691041 4.4910778 56.082977 4.0238812 54.515625 4 z M 54.851562 16.755859 C 55.694917 17.936932 56.460686 19.178626 57.115234 20.486328 C 57.518938 21.983477 57.733986 23.6389 57.785156 25.361328 C 57.80067 23.281006 57.596325 21.270471 57.115234 19.486328 C 56.646843 18.550543 56.118392 17.651313 55.548828 16.78125 C 55.314837 16.781412 55.081456 16.776761 54.851562 16.755859 z M 6.9628906 19.603516 C 6.3670849 20.803666 5.8492497 22.048731 5.4296875 23.339844 C 5.4450293 23.585216 5.486177 23.847718 5.5136719 24.101562 C 6.0292521 22.564571 6.6759273 21.08895 7.4375 19.683594 C 7.2813948 19.663497 7.1222156 19.634206 6.9628906 19.603516 z"/>
</svg>
